X:82
T:Saraband Sett Of Waltzes No.2. Le4.082
B:L.Leadley MS#4 c1850
Z:Village Music Project, 2016 Steve Mansfield
M:3/4
L:1/4
Q:3/4=60
K:Em
(G/c/) | e2e | g(Bc) | e2e | (gBc) |(edc) | (ded) | c2c | (GA)c |
e2e | (gGc) | e2e | (gB)c |edc | dee | c2c | c2 ||
(G/G/) | G2d | (dG)G | G2d |(dG)G | G2d | (ed)c | d2d | G-GG |
G2d | (dG)G | G2d | dGG |G2e | edc | d2d | G2C ||
F2A | c2f | e2d | d2c |(BA)B | (Gd)c | c2A | F2C |
F2A | c2f | e2d | d2c |(BA)B | (Gd)c | F2F | F2 !segno! |]

